public/library/kuantist-icon-light.svg

<svg width="157" height="32" viewBox="0 0 157 32" fill="none" xmlns="http://www.w3.org/2000/svg">
<path d="M19.5997 0.701747L12.8584 7.43159L5.62675 14.6004C5.49061 14.7358 5.27082 14.735 5.1355 14.5996L0.173862 9.64616C0.108254 9.58052 0.0713492 9.4919 0.0721693 9.39918C0.0721693 9.30729 0.109074 9.21785 0.174683 9.15303L3.84876 5.51159C7.94847 1.44841 13.6712 -0.533945 19.4045 0.124106C19.6875 0.156927 19.8015 0.499901 19.5997 0.701747ZM5.06333 17.0964C5.19865 16.961 5.41844 16.9602 5.55458 17.0956L15.9002 27.352C15.9658 27.4168 16.0027 27.5054 16.0027 27.5982C16.0035 27.6901 15.9666 27.7787 15.9019 27.8443L12.7617 30.9828C12.6764 31.0689 12.5517 31.1034 12.4336 31.0739C9.14992 30.2369 6.14915 28.5368 3.74214 26.1508L0.102513 22.5438C0.0369048 22.4782 0 22.3895 0 22.2976C0 22.2049 0.0369048 22.1163 0.102513 22.0507L5.06415 17.0972L5.06333 17.0964ZM19.9294 25.7151L14.7053 30.9352C14.6118 31.0254 14.5782 31.1625 14.62 31.2855C14.6619 31.4094 14.7709 31.4981 14.9005 31.5128C20.6355 32.1717 26.3598 30.1902 30.4612 26.1253L34.1435 22.4757C34.2091 22.4101 34.2452 22.3223 34.2452 22.2295C34.2452 22.1368 34.2091 22.049 34.1435 21.9834L29.1818 17.0291C29.0465 16.8937 28.8267 16.8937 28.6914 17.0291L19.9294 25.7134V25.7151ZM18.3679 4.31447C18.3023 4.24964 18.2654 4.16103 18.2654 4.06831C18.2646 3.97641 18.3015 3.8878 18.3663 3.82216L21.5073 0.681234C21.5934 0.59508 21.718 0.561439 21.8353 0.590978C25.1174 1.4279 28.1165 3.12718 30.5227 5.51159L34.1664 9.12431C34.232 9.18995 34.2681 9.27775 34.2681 9.37047C34.2681 9.46318 34.232 9.55098 34.1664 9.61662L29.2048 14.5709C29.0695 14.7054 28.8505 14.7054 28.7152 14.5709L18.3679 4.31447Z" fill="#6D05F1"/>
<path d="M96.0704 14.0503C96.4805 15.0857 96.6839 16.2771 96.6839 17.6228V26.7108H93.5142L92.9516 25.0205C91.6009 26.5081 89.4866 27.2375 86.8172 27.2375C85.2787 27.2375 83.9739 27.0037 82.9078 26.5294H82.9061L82.9045 26.5278C81.8547 26.0306 81.1248 25.2995 80.7271 24.3321C80.477 23.7405 80.3539 23.0652 80.3539 22.3104C80.3539 21.5136 80.477 20.817 80.7271 20.2238C81.2684 18.9553 82.2673 18.0954 83.7049 17.6416C85.1483 17.1936 86.9697 16.9713 89.166 16.9713H92.7334V16.831C92.7367 16.5635 92.717 16.2968 92.6752 16.0326C92.6326 15.7947 92.5653 15.5608 92.4743 15.3368C91.9863 14.2357 90.7758 13.6498 88.7444 13.6498C86.7262 13.6498 85.5616 14.1971 85.136 15.2105L85.1311 15.2203C85.0007 15.4747 84.9367 15.7372 84.9367 16.0072V16.1516H80.9756L80.9871 15.9957C81.0478 15.1629 81.1905 14.4597 81.4193 13.8919V13.8903L81.4201 13.8886C81.9384 12.6898 82.8405 11.8209 84.1141 11.2802C85.3804 10.7223 86.9148 10.4457 88.7149 10.4457C90.6135 10.4457 92.1799 10.7329 93.4084 11.313C94.6631 11.8759 95.5538 12.7891 96.0696 14.0494L96.0704 14.0503ZM92.4448 21.6162C92.6564 21.1321 92.7638 20.5717 92.7638 19.9341V19.889H89.3169C87.9768 19.889 86.8935 19.9842 86.0627 20.1713C85.2639 20.3559 84.7686 20.7063 84.5324 21.1986C84.4405 21.4316 84.3938 21.6802 84.3946 21.9305C84.3946 22.2316 84.4323 22.4868 84.5045 22.6985C84.7071 23.1588 85.0843 23.4927 85.6559 23.6929C86.2407 23.898 86.9287 24.0023 87.721 24.0023C88.8691 24.0023 89.8623 23.7947 90.7037 23.3828C91.5426 22.952 92.1192 22.362 92.4448 21.6162Z" fill="#6D05F1"/>
<path d="M45 5V26.7214H49.2408V20.8326L52.4064 17.4439L59.0525 26.7214H63.9895L55.1906 14.4359L63.9576 5H58.2291L49.2399 14.8478V5H45Z" fill="#6D05F1"/>
<path d="M126.601 8.48308V5H130.398V8.48308H126.601Z" fill="#6D05F1"/>
<path d="M126.601 26.7206V10.8896H130.398V26.7206H126.601Z" fill="#6D05F1"/>
<path d="M140.045 16.7563L139.83 16.7071L139.829 16.7063C139.534 16.639 139.248 16.5774 138.975 16.5192L138.909 16.5052L138.906 16.5047C138.657 16.4516 138.419 16.4009 138.193 16.3493C137.697 16.2369 137.268 16.1229 136.915 15.9785C136.562 15.8341 136.303 15.6658 136.133 15.4566C135.965 15.2523 135.868 14.9906 135.868 14.6263C135.868 14.1438 136.09 13.7417 136.545 13.4488C137.012 13.1502 137.729 12.9639 138.7 12.9639C139.958 12.9639 140.699 13.2782 141.152 13.7073C141.608 14.1381 141.809 14.7198 141.916 15.3319L141.95 15.5288H145.634L145.615 15.2728C145.499 13.8098 144.898 12.4503 143.744 11.4583C142.592 10.4671 140.911 9.86154 138.668 9.86154C136.603 9.86154 134.949 10.4023 133.805 11.3056C132.659 12.2115 132.038 13.4743 132.038 14.8798C132.038 15.8373 132.266 16.6037 132.659 17.2199C133.052 17.8345 133.601 18.2849 134.221 18.6295C135.274 19.2142 136.57 19.5071 137.713 19.7655L137.715 19.7659C137.898 19.807 138.082 19.8497 138.266 19.8923C138.561 19.9629 138.837 20.0252 139.102 20.0843C139.381 20.1458 139.659 20.2107 139.937 20.2779C140.448 20.4035 140.894 20.5356 141.262 20.7079C141.628 20.8786 141.905 21.0837 142.092 21.3479C142.277 21.6096 142.387 21.9485 142.387 22.4154C142.387 23.2441 141.573 24.3313 139.333 24.3313C137.653 24.3313 136.679 23.9653 136.104 23.4328C135.53 22.9011 135.31 22.1651 135.234 21.3175L135.214 21.1017H131.52L131.532 21.3504C131.613 23.1112 132.235 24.6439 133.531 25.7327C134.822 26.8174 136.751 27.4345 139.396 27.4345C141.394 27.4345 143.094 26.9438 144.302 26.033C145.515 25.1182 146.217 23.7897 146.217 22.1627C146.217 21.1625 146.008 20.3551 145.634 19.697C145.262 19.0398 144.735 18.5467 144.119 18.161C142.958 17.4373 141.458 17.0862 140.045 16.7563Z" fill="#6D05F1"/>
<path d="M98.4324 10.8905V26.7223H102.23V17.3184C102.23 15.1965 103.781 13.8033 106.091 13.8033C108.402 13.8033 109.952 15.1965 109.952 17.3184V26.7223H113.75V16.8745C113.75 13.0115 110.87 10.4474 106.534 10.4474C104.983 10.4474 103.274 11.08 102.23 12.0622L101.427 10.8905H98.4324Z" fill="#6D05F1"/>
<path d="M116.953 10.8896H114.421V14.056H116.953V20.6997C116.953 24.0261 119.648 26.7223 122.972 26.7223H124.353V26.7141L124.354 26.7223H124.709V23.5551H121.872C121.253 23.5551 120.751 23.0529 120.751 22.4334V14.056H124.739V10.8888H120.751V5.00082H116.953V10.8896ZM146.122 10.8896H148.655V5H152.452V10.8896H156.44V14.056H152.452V22.4334C152.452 23.0529 152.954 23.5551 153.573 23.5551H156.41V26.7223H156.055L156.054 26.7141V26.7223H154.674C151.35 26.7214 148.655 24.0252 148.655 20.6997V14.056H146.122V10.8896ZM154.389 5H155.286V5.23631H154.985V5.9559H154.69V5.23631H154.389V5ZM155.417 5H155.805L155.955 5.58174L156.104 5H156.49V5.9559H156.249V5.22728L156.063 5.9559H155.845L155.658 5.22728V5.9559H155.417V5Z" fill="#6D05F1"/>
<path d="M78.6867 26.7206V10.8905H74.8896V20.2944C74.8896 22.4162 73.3379 23.8094 71.0277 23.8094C68.7175 23.8094 67.1666 22.4162 67.1666 20.2944V10.8896H63.3696V20.7366C63.3696 24.5996 66.2489 27.1645 70.5848 27.1645C72.1348 27.1645 73.8448 26.5311 74.8888 25.5497L75.6916 26.7214L78.6867 26.7206Z" fill="#6D05F1"/>
</svg>

<svg xmlns="http://www.w3.org/2000/svg" width="157" height="32" fill="none" viewBox="0 0 157 32"><path fill="#6d05f1" d="m19.6.702-6.742 6.73L5.627 14.6a.35.35 0 0 1-.491 0L.174 9.646a.347.347 0 0 1 0-.493L3.85 5.512A19.02 19.02 0 0 1 19.404.124a.338.338 0 0 1 .196.578M5.063 17.096a.35.35 0 0 1 .492 0L15.9 27.352a.347.347 0 0 1 .002.492l-3.14 3.139a.34.34 0 0 1-.328.09 19 19 0 0 1-8.692-4.922l-3.64-3.607a.35.35 0 0 1 0-.493l4.962-4.954m14.866 8.62-5.224 5.22a.337.337 0 0 0 .195.577 19.02 19.02 0 0 0 15.561-5.388l3.683-3.65a.346.346 0 0 0 0-.492l-4.962-4.954a.347.347 0 0 0-.49 0l-8.763 8.684zM18.368 4.313a.346.346 0 0 1-.002-.492l3.141-3.14a.34.34 0 0 1 .328-.091 19 19 0 0 1 8.688 4.92l3.643 3.613a.346.346 0 0 1 0 .493l-4.961 4.954a.347.347 0 0 1-.49 0zM96.07 14.05q.614 1.554.614 3.573v9.088h-3.17l-.562-1.69c-1.351 1.487-3.465 2.217-6.135 2.217q-2.308.002-3.91-.709l-.002-.001c-1.05-.497-1.78-1.229-2.178-2.196q-.374-.888-.373-2.022-.001-1.195.373-2.086c.541-1.269 1.54-2.129 2.978-2.582q2.166-.671 5.461-.67h3.567v-.141a5 5 0 0 0-.058-.798 3.5 3.5 0 0 0-.2-.696c-.489-1.101-1.7-1.687-3.73-1.687-2.019 0-3.183.547-3.609 1.56l-.005.01q-.194.382-.194.787v.145h-3.961l.011-.156q.09-1.25.432-2.104v-.002l.001-.001c.518-1.2 1.42-2.068 2.694-2.609q1.9-.835 4.6-.834 2.851-.002 4.694.867c1.255.563 2.146 1.476 2.662 2.736zm-3.625 7.566q.318-.726.319-1.682v-.045h-3.447q-2.009 0-3.254.282c-.8.185-1.294.535-1.53 1.028a2 2 0 0 0-.138.731q0 .452.11.768c.202.46.58.795 1.15.995q.879.309 2.066.31 1.721-.001 2.983-.62c.839-.431 1.415-1.021 1.74-1.767M45 5v21.721h4.24v-5.888l3.166-3.39 6.647 9.278h4.937l-8.8-12.285L63.959 5h-5.729l-8.99 9.848V5zM126.601 8.483V5h3.797v3.483zM126.601 26.72V10.89h3.797v15.83zM140.045 16.756l-.215-.049h-.001a61 61 0 0 0-.854-.188l-.066-.014h-.003q-.374-.079-.713-.156c-.496-.112-.925-.226-1.278-.37-.353-.145-.612-.313-.782-.522-.168-.205-.265-.466-.265-.83 0-.483.222-.885.677-1.178.467-.299 1.184-.485 2.155-.485 1.258 0 1.999.314 2.452.743.456.431.657 1.013.764 1.625l.034.197h3.684l-.019-.256c-.116-1.463-.717-2.823-1.871-3.815-1.152-.99-2.833-1.596-5.076-1.596-2.065 0-3.719.54-4.863 1.444-1.146.906-1.767 2.168-1.767 3.574 0 .957.228 1.724.621 2.34.393.614.942 1.065 1.562 1.41 1.053.584 2.349.877 3.492 1.136h.002l.551.126q.44.104.836.192.418.093.835.194c.511.126.957.258 1.325.43.366.17.643.376.83.64.185.262.295.6.295 1.067 0 .83-.814 1.916-3.054 1.916-1.68 0-2.654-.366-3.229-.898-.574-.532-.794-1.268-.87-2.116l-.02-.215h-3.694l.012.248c.081 1.761.703 3.294 1.999 4.383 1.291 1.084 3.22 1.701 5.865 1.701 1.998 0 3.698-.49 4.906-1.401 1.213-.915 1.915-2.243 1.915-3.87 0-1-.209-1.808-.583-2.466-.372-.657-.899-1.15-1.515-1.536-1.161-.724-2.661-1.075-4.074-1.405M98.432 10.89v15.832h3.798v-9.404c0-2.122 1.551-3.515 3.861-3.515s3.861 1.393 3.861 3.515v9.404h3.798v-9.847c0-3.863-2.88-6.428-7.216-6.428-1.551 0-3.26.633-4.304 1.615l-.803-1.171zM116.953 10.89h-2.532v3.166h2.532V20.7a6.02 6.02 0 0 0 6.019 6.022h1.381v-.008l.001.008h.355v-3.167h-2.837a1.12 1.12 0 0 1-1.121-1.122v-8.377h3.988v-3.167h-3.988V5h-3.798zm29.169 0h2.533V5h3.797v5.89h3.988v3.166h-3.988v8.377c0 .62.502 1.122 1.121 1.122h2.837v3.167h-.355l-.001-.008v.008h-1.38a6.02 6.02 0 0 1-6.019-6.022v-6.644h-2.533zM154.389 5h.897v.236h-.301v.72h-.295v-.72h-.301zm1.028 0h.388l.15.582.149-.582h.386v.956h-.241v-.729l-.186.729h-.218l-.187-.729v.729h-.241z"/><path fill="#6d05f1" d="M78.687 26.72V10.89H74.89v9.404c0 2.122-1.552 3.515-3.862 3.515s-3.861-1.393-3.861-3.515V10.89H63.37v9.847c0 3.863 2.879 6.428 7.215 6.428 1.55 0 3.26-.634 4.304-1.615l.803 1.171z"/></svg>
